app/dist/common/images/hunan-new-wellfull-coltd.svg

<svg height="18" viewBox="0 0 18 18" width="18" xmlns="http://www.w3.org/2000/svg" xmlns:xlink="http://www.w3.org/1999/xlink"><linearGradient id="a" gradientUnits="userSpaceOnUse" x1="9" x2="9" y1="4" y2="8.33"><stop offset="0" stop-color="#2343a3"/><stop offset=".79" stop-color="#afbdf3"/></linearGradient><path d="m0 0h18v18h-18z" fill="#f0f3fa"/><path d="m4.9 8.67 1.9 2.16-1.9 2.17-1.9-2.17zm8.2 0 1.9 2.16-1.9 2.17-1.9-2.17zm-6.15-2.34 1.9 2.17-1.9 2.17-1.85-2.17zm4.1 0 1.85 2.17-1.85 2.17-1.9-2.17z" fill="#0a2efd"/><path d="m9 4 1.9 2.17-1.9 2.16-1.9-2.16z" fill="url(#a)"/><path d="m9 8.67 1.9 2.16-1.9 2.17-1.9-2.17z" fill="#0a2efd"/></svg>

<!-- by TradingView --><svg width="18" height="18" viewBox="0 0 18 18" xmlns="http://www.w3.org/2000/svg"><path fill="#F0F3FA" d="M0 0h18v18H0z"/><path d="m4.9 8.67 1.9 2.16L4.9 13 3 10.83l1.9-2.16ZM13.1 8.67l1.9 2.16L13.1 13l-1.9-2.17 1.9-2.16ZM6.95 6.33l1.9 2.17-1.9 2.17L5.1 8.5l1.85-2.17ZM11.05 6.33 12.9 8.5l-1.85 2.17-1.9-2.17 1.9-2.17Z" fill="#0A2EFD"/><path d="m9 4 1.9 2.17L9 8.33 7.1 6.17 9 4Z" fill="url(#ao3tfpgr0)"/><path d="m9 8.67 1.9 2.16L9 13l-1.9-2.17L9 8.67Z" fill="#0A2EFD"/><defs><linearGradient id="ao3tfpgr0" x1="9" y1="4" x2="9" y2="8.33" gradientUnits="userSpaceOnUse"><stop stop-color="#2343A3"/><stop offset=".79" stop-color="#AFBDF3"/></linearGradient></defs></svg>
